!!!OTL: DURCH FELD UND WALD
!!!ARE: Europa, Mitteleuropa, Deutschland
!!!SCT: F0519
!!!YEM: Copyright 1995, estate of Helmut Schaffrath.
**kern
*ICvox
*Ivox
*M2/4
*k[b-]
*F:
{8c
=1
8c
8A
8B-
8d
=2
8c
8f
8f}
{8c
=3
8c
8A
8B-
8d
=4
8c
8f
8f}
{8A
=5
8G
8c
16e
16d
16c
16Bn
=6
4c
8r}
{8c
=7
8B-
8A
8G
8B-
=8
8A
8c
8A}
{8c
=9
8B-
8A
8G
8B-
=10
8A
8c
8A}
{8c
=11
8d
8d
8e
8e
=12
2f
=13
4.r}
==
!!!AGN: Studenten - Lied
!!!ONB: ESAC (Essen Associative Code) Database: FINK
!!!AMT: simple duple
!!!AIN: vox
!!!EED: Helmut Schaffrath
!!!EEV: 1.0
*-
